img/instagram.svg

<svg width="42" height="42" viewBox="0 0 42 42" fill="none" xmlns="http://www.w3.org/2000/svg">
<path d="M21 42C32.598 42 42 32.598 42 21C42 9.40202 32.598 0 21 0C9.40202 0 0 9.40202 0 21C0 32.598 9.40202 42 21 42Z" fill="url(#paint0_linear)"/>
<path d="M30.7378 10.904C28.2287 11.2216 25.6126 11.2105 22.9797 10.9599C19.3029 10.677 13.9292 8.98004 11.9494 12.374C8.76887 17.8074 10.3376 24.7636 11.0787 30.9195L22.1314 41.9697C32.8273 41.4018 41.3994 32.8309 41.9691 22.1354L30.7378 10.904Z" fill="black" fill-opacity="0.08"/>
<path d="M25.8586 8.97998H16.1416C12.1927 8.97998 8.97998 12.1927 8.97998 16.1416V25.8586C8.97998 29.8075 12.1927 33.0204 16.1417 33.0204H25.8587C29.8075 33.0204 33.0205 29.8076 33.0205 25.8586V16.1416C33.0204 12.1927 29.8076 8.97998 25.8586 8.97998ZM30.6019 25.8587C30.6019 28.4783 28.4783 30.6019 25.8587 30.6019H16.1417C13.5221 30.6019 11.3985 28.4783 11.3985 25.8587V16.1417C11.3985 13.5221 13.5221 11.3984 16.1417 11.3984H25.8587C28.4783 11.3984 30.6019 13.5222 30.6019 16.1417V25.8587Z" fill="white"/>
<path d="M21 14.7827C17.5716 14.7827 14.7822 17.5721 14.7822 21.0005C14.7822 24.4287 17.5716 27.2181 21 27.2181C24.4284 27.2181 27.2176 24.4289 27.2176 21.0005C27.2176 17.5721 24.4284 14.7827 21 14.7827ZM21 24.7996C18.9018 24.7996 17.2007 23.0989 17.2007 21.0005C17.2007 18.9022 18.9018 17.2012 21 17.2012C23.0983 17.2012 24.7991 18.9021 24.7991 21.0005C24.7991 23.0988 23.0983 24.7996 21 24.7996Z" fill="white"/>
<path d="M28.7196 14.8298C28.7196 15.6526 28.0525 16.3197 27.2297 16.3197C26.4069 16.3197 25.7397 15.6526 25.7397 14.8298C25.7397 14.0069 26.4069 13.3398 27.2297 13.3398C28.0527 13.3398 28.7196 14.0068 28.7196 14.8298Z" fill="#D1D1D1"/>
<path d="M25.8588 8.97998H20.9531V11.3984H25.8588C28.4783 11.3984 30.602 13.5222 30.602 16.1417V25.8587C30.602 28.4783 28.4783 30.6019 25.8588 30.6019H20.9531V33.0204H25.8588C29.8076 33.0204 33.0204 29.8076 33.0204 25.8586V16.1416C33.0204 12.1927 29.8077 8.97998 25.8588 8.97998Z" fill="#D1D1D1"/>
<path d="M21.0002 14.7827C20.9844 14.7827 20.969 14.7839 20.9531 14.7839V17.2023C20.9688 17.2021 20.9844 17.2012 21.0002 17.2012C23.0985 17.2012 24.7993 18.9021 24.7993 21.0005C24.7993 23.0988 23.0986 24.7996 21.0002 24.7996C20.9844 24.7996 20.9688 24.7986 20.9531 24.7985V27.2169C20.969 27.2171 20.9844 27.2181 21.0002 27.2181C24.4286 27.2181 27.2178 24.4289 27.2178 21.0005C27.2178 17.5721 24.4286 14.7827 21.0002 14.7827Z" fill="#D1D1D1"/>
<defs>
<linearGradient id="paint0_linear" x1="21" y1="0" x2="21" y2="42" gradientUnits="userSpaceOnUse">
<stop stop-color="#7B22BA"/>
<stop offset="0.3042" stop-color="#AC1C8A"/>
<stop offset="0.520068" stop-color="#C63A5B"/>
<stop offset="0.741617" stop-color="#CA534B"/>
<stop offset="0.894998" stop-color="#DB8A40"/>
<stop offset="1" stop-color="#DE933E"/>
</linearGradient>
</defs>
</svg>

<svg width="42" height="42" fill="none" xmlns="http://www.w3.org/2000/svg"><path d="M21 42c11.598 0 21-9.402 21-21S32.598 0 21 0 0 9.402 0 21s9.402 21 21 21z" fill="url(#paint0_linear)"/><path d="M30.738 10.904c-2.51.318-5.125.306-7.758.056-3.677-.283-9.05-1.98-11.03 1.414-3.181 5.433-1.612 12.39-.871 18.545L22.13 41.97c10.696-.567 19.268-9.138 19.838-19.834l-11.23-11.232z" fill="#000" fill-opacity=".08"/><path d="M25.859 8.98h-9.717a7.17 7.17 0 0 0-7.162 7.162v9.717c0 3.948 3.213 7.161 7.162 7.161h9.717c3.948 0 7.161-3.212 7.161-7.161v-9.717c0-3.95-3.212-7.162-7.161-7.162zm4.743 16.879a4.743 4.743 0 0 1-4.743 4.743h-9.717a4.743 4.743 0 0 1-4.743-4.743v-9.717a4.743 4.743 0 0 1 4.743-4.744h9.717a4.743 4.743 0 0 1 4.743 4.744v9.717z" fill="#fff"/><path d="M21 14.783A6.225 6.225 0 0 0 14.782 21 6.225 6.225 0 0 0 21 27.218 6.225 6.225 0 0 0 27.218 21 6.225 6.225 0 0 0 21 14.784zM21 24.8a3.8 3.8 0 1 1 0-7.599 3.8 3.8 0 0 1 0 7.599z" fill="#fff"/><path d="M28.72 14.83a1.49 1.49 0 1 1-2.98 0 1.49 1.49 0 0 1 2.98 0z" fill="#D1D1D1"/><path d="M25.859 8.98h-4.906v2.418h4.906a4.743 4.743 0 0 1 4.743 4.744v9.717a4.743 4.743 0 0 1-4.743 4.743h-4.906v2.418h4.906a7.169 7.169 0 0 0 7.161-7.161v-9.717c0-3.95-3.212-7.162-7.161-7.162z" fill="#D1D1D1"/><path d="M21 14.783h-.047v2.42L21 17.2a3.8 3.8 0 1 1 0 7.599l-.047-.002v2.419l.047.001A6.225 6.225 0 0 0 27.218 21 6.225 6.225 0 0 0 21 14.784z" fill="#D1D1D1"/><defs><linearGradient id="paint0_linear" x1="21" y1="0" x2="21" y2="42" gradientUnits="userSpaceOnUse"><stop stop-color="#7B22BA"/><stop offset=".304" stop-color="#AC1C8A"/><stop offset=".52" stop-color="#C63A5B"/><stop offset=".742" stop-color="#CA534B"/><stop offset=".895" stop-color="#DB8A40"/><stop offset="1" stop-color="#DE933E"/></linearGradient></defs></svg>
